dist/uploads/catalog-sidebar-icons/1/i-catalog-17.svg

<svg width="34" height="34" viewBox="0 0 34 34" fill="none" xmlns="http://www.w3.org/2000/svg">
<g clip-path="url(#clip0)">
<path d="M26.8522 7.14783C27.4893 7.39374 28.0701 7.76832 28.5554 8.25365L29.3381 9.0386V5.65784C29.3381 5.11984 28.88 4.66174 28.342 4.66174H24.9609L25.7461 5.44435C26.2315 5.92995 26.6061 6.51049 26.8522 7.14783Z" fill="#FFC800"/>
<path d="M29.3383 28.2093V24.8282L28.5557 25.6135C28.0701 26.0988 27.4895 26.4734 26.8525 26.7195C26.6063 27.3566 26.2317 27.9374 25.7464 28.4227L24.9614 29.2054H28.3422C28.8802 29.2054 29.3383 28.7473 29.3383 28.2093Z" fill="#FFC800"/>
<path d="M5.57692 25.6133L4.79431 24.8284V28.2091C4.79431 28.7471 5.25241 29.2052 5.79041 29.2052H9.17194L8.38622 28.4226C7.90088 27.9373 7.52631 27.3565 7.2804 26.7194C6.64305 26.4732 6.06252 26.0987 5.57692 25.6133Z" fill="#FFC800"/>
<path d="M7.28014 7.14783C7.52631 6.51049 7.90088 5.92995 8.38622 5.44435L9.17142 4.66174H5.79041C5.25241 4.66174 4.79431 5.11984 4.79431 5.65784V9.03886L5.57692 8.25366C6.06252 7.76832 6.64305 7.39374 7.28014 7.14783Z" fill="#FFC800"/>
<path d="M7.78272 15.9373H10.6774L12.0859 14.5288V13.3615L7.82111 9.09668C7.5202 9.23624 7.23305 9.4147 6.98584 9.66165L6.78662 9.86113V14.9412C6.78662 15.4989 7.24472 15.9373 7.78272 15.9373Z" fill="#FFC800"/>
<path d="M12.0859 19.3384L10.6774 17.9298H7.78272C7.24472 17.9298 6.78662 18.3679 6.78662 18.9259V24.006L6.98584 24.2052C7.23305 24.4524 7.5202 24.6306 7.82111 24.7704L12.0859 20.5057V19.3384Z" fill="#FFC800"/>
<path d="M17.0663 5.43858C17.604 4.9605 18.3013 4.64845 19.0585 4.64845H22.1464L17.7636 0.232422C17.3848 -0.166016 16.7475 -0.166016 16.369 0.232422L11.9862 4.64845H15.0741C15.831 4.64845 16.5283 4.9605 17.0663 5.43858Z" fill="#FFC800"/>
<path d="M26.3499 15.9373C26.8879 15.9373 27.346 15.4989 27.346 14.9412V9.86113L27.1468 9.66165C26.8996 9.4147 26.6127 9.23624 26.3118 9.09668L22.047 13.3615V14.5285L23.4555 15.9373H26.3499Z" fill="#FFC800"/>
<path d="M19.0589 13.9452C18.7943 13.9452 18.5414 13.8402 18.3546 13.6534L17.0667 12.3655L15.7785 13.6534C15.592 13.8402 15.3391 13.9452 15.0745 13.9452H14.0784V14.9413C14.0784 15.2059 13.9733 15.4588 13.7863 15.6456L12.4987 16.9335L13.7866 18.2214C13.9733 18.4082 14.0784 18.6611 14.0784 18.9257V19.9218H15.0745C15.3391 19.9218 15.592 20.0269 15.7785 20.2136L17.0667 21.5015L18.3546 20.2136C18.5414 20.0269 18.794 19.9218 19.0589 19.9218H20.055V18.9257C20.055 18.6611 20.16 18.4082 20.3468 18.2214L21.6347 16.9335L20.3465 15.6456C20.16 15.4588 20.055 15.2059 20.055 14.9413V13.9452H19.0589Z" fill="#FFC800"/>
<path d="M27.1468 24.2052L27.346 24.0057V18.9259C27.346 18.3679 26.8879 17.9298 26.3499 17.9298H23.4555L22.047 19.3384V20.5054L26.3115 24.7702C26.6127 24.6306 26.8996 24.4522 27.1468 24.2052Z" fill="#FFC800"/>
<path d="M18.0625 7.6499V10.5443L19.471 11.9531H20.6383L24.9029 7.6883C24.7633 7.38739 24.5849 7.10024 24.3379 6.85303L24.1384 6.65381H19.0586C18.5006 6.65381 18.0625 7.11191 18.0625 7.6499Z" fill="#FFC800"/>
<path d="M24.3379 27.0141C24.5849 26.7669 24.7633 26.48 24.9031 26.1788L20.6383 21.9143H19.471L18.0625 23.3228V26.2172C18.0625 26.7552 18.5006 27.2133 19.0586 27.2133H24.1387L24.3379 27.0141Z" fill="#FFC800"/>
<path d="M29.3517 14.9414C29.3517 15.7183 29.0394 16.4156 28.5613 16.9336C29.0396 17.4516 29.3517 18.1489 29.3517 18.9258V22.0137L33.7674 17.6309C34.1659 17.2524 34.1659 16.6148 33.7674 16.2363L29.3517 11.8535V14.9414Z" fill="#FFC800"/>
<path d="M14.6617 11.9531L16.0702 10.5445V7.6499C16.0702 7.11191 15.6319 6.65381 15.0742 6.65381H9.99407L9.79459 6.85303C9.54764 7.10024 9.36917 7.38713 9.22961 7.6883L13.4944 11.9531H14.6617Z" fill="#FFC800"/>
<path d="M17.0663 33.9337C17.3252 33.9337 17.5841 33.8341 17.7633 33.6346L22.1461 29.2188H19.0585C18.2813 29.2188 17.5841 28.9068 17.0663 28.4287C16.5483 28.9068 15.851 29.2188 15.0741 29.2188H11.9862L16.369 33.6346C16.5483 33.8341 16.8072 33.9337 17.0663 33.9337Z" fill="#FFC800"/>
<path d="M9.99407 27.2133H15.0742C15.6319 27.2133 16.0702 26.7552 16.0702 26.2172V23.3228L14.6617 21.9143H13.4944L9.22961 26.1791C9.36917 26.48 9.54764 26.7669 9.79485 27.0144L9.99407 27.2133Z" fill="#FFC800"/>
<path d="M4.7815 22.0134V18.9258C4.7815 18.1489 5.09356 17.4516 5.57164 16.9336C5.09356 16.4156 4.7815 15.7183 4.7815 14.9414V11.8535L0.365479 16.2363C-0.0329592 16.6148 -0.0329592 17.2521 0.365479 17.6306L4.7815 22.0134Z" fill="#FFC800"/>
</g>
<defs>
<clipPath id="clip0">
<rect width="34" height="34" fill="white"/>
</clipPath>
</defs>
</svg>

<svg width="34" height="34" fill="none" xmlns="http://www.w3.org/2000/svg"><g clip-path="url(#clip0)" fill="#FFC800"><path d="M26.852 7.148c.637.246 1.218.62 1.703 1.106l.783.785V5.658c0-.538-.458-.996-.996-.996h-3.381l.785.782c.486.486.86 1.066 1.106 1.704zm2.486 21.062v-3.382l-.782.785a4.91 4.91 0 0 1-1.704 1.107 4.908 4.908 0 0 1-1.106 1.703l-.785.782h3.381c.538 0 .996-.458.996-.996zM5.577 25.613l-.783-.785v3.381c0 .538.458.996.996.996h3.382l-.786-.782a4.902 4.902 0 0 1-1.106-1.704 4.908 4.908 0 0 1-1.703-1.106zM7.28 7.148a4.908 4.908 0 0 1 1.106-1.704l.785-.782h-3.38c-.539 0-.997.458-.997.996v3.38l.783-.784A4.905 4.905 0 0 1 7.28 7.148zm.503 8.789h2.894l1.409-1.408V13.36L7.82 9.098c-.3.14-.588.318-.835.565l-.2.2v5.08a1 1 0 0 0 .997.995zm4.303 3.401l-1.409-1.408H7.783a.999.999 0 0 0-.996.996v5.08l.199.2c.247.246.534.425.835.564l4.265-4.264v-1.168zm4.98-13.899c.538-.479 1.235-.79 1.992-.79h3.088L17.764.231a.963.963 0 0 0-1.395 0l-4.383 4.416h3.088c.757 0 1.454.313 1.992.79zm9.284 10.498a.999.999 0 0 0 .996-.996v-5.08l-.2-.2a2.868 2.868 0 0 0-.834-.564l-4.265 4.264v1.167l1.409 1.41h2.894zm-7.291-1.992a.995.995 0 0 1-.704-.292l-1.288-1.287-1.289 1.287a.994.994 0 0 1-.704.292h-.996v.996a.995.995 0 0 1-.292.705L12.5 16.933l1.288 1.288a1 1 0 0 1 .291.705v.996h.997c.264 0 .517.105.704.292l1.288 1.288 1.288-1.288a.995.995 0 0 1 .704-.292h.996v-.996c0-.265.105-.518.292-.705l1.288-1.288-1.289-1.287a.996.996 0 0 1-.291-.705v-.996h-.996zm8.088 10.26l.199-.2v-5.08a.999.999 0 0 0-.996-.995h-2.895l-1.408 1.408v1.167l4.264 4.265c.302-.14.589-.318.836-.565zM18.063 7.65v2.894l1.408 1.41h1.167l4.265-4.266a2.87 2.87 0 0 0-.565-.835l-.2-.2h-5.08a.999.999 0 0 0-.995.997zm6.275 19.364a2.87 2.87 0 0 0 .565-.835l-4.265-4.265h-1.167l-1.409 1.409v2.894a1 1 0 0 0 .997.996h5.08l.199-.199zm5.014-12.073c0 .777-.313 1.475-.79 1.993.478.518.79 1.215.79 1.992v3.088l4.415-4.383a.963.963 0 0 0 0-1.395l-4.415-4.383v3.088zm-14.69-2.988l1.408-1.409V7.65a.999.999 0 0 0-.996-.996h-5.08l-.2.199a2.866 2.866 0 0 0-.564.835l4.264 4.265h1.168zm2.404 21.981c.26 0 .518-.1.697-.3l4.383-4.415h-3.088a2.935 2.935 0 0 1-1.992-.79 2.936 2.936 0 0 1-1.992.79h-3.088l4.383 4.416c.18.2.438.299.697.299zm-7.072-6.721h5.08a.999.999 0 0 0 .996-.996v-2.894l-1.408-1.409h-1.168L9.23 26.18c.14.301.318.588.565.835l.2.2zm-5.212-5.2v-3.087c0-.777.312-1.474.79-1.992a2.936 2.936 0 0 1-.79-1.993v-3.088L.365 16.236a.963.963 0 0 0 0 1.395l4.417 4.382z"/></g><defs><clipPath id="clip0"><path fill="#fff" d="M0 0h34v34H0z"/></clipPath></defs></svg>
